X: 13453
T: Flooded Road To Glenties, The
R: reel
M: 4/4
K: Bdorian
FB~B2 cfec|Bcec BAFE|FB~B2 ceaf|gfeg effe|
fafe (3B^c^d ec|AB (3cBA Bcde|aAab ef~f2|1 ecAc ABBA:|2 ecAc ABBc||
|:dB~B2 aBgB|dB~B2 ceAc|dA (3B^c^d egaf|gfeg effe|
fafe (3B^c^d ec|AB (3cBA Bcde|aAab ef~f2|1 ecAc ABBc:|2 ecAc ABBA||

